website/themes/beastie/static/images/documentation.svg

<?xml version="1.0" encoding="UTF-8" standalone="no"?>
<svg xmlns="http://www.w3.org/2000/svg" width="144.748" height="128" viewBox="0 0 121 107" fill="none" role="img" aria-label="Documentation icon">
  <g
     stroke-linecap="round"
     stroke-linejoin="round"
     id="g16"
     transform="matrix(0.99872194,0,0,1.0786763,0.07668362,-0.96400148)">
    <path
       d="m 14,18 v 66 h 34 q 7,0 12,6 5,-6 12,-6 h 34 V 18 q 0,-5 -5,-5 H 76 Q 67,13 60,18 53,13 44,13 H 19 q -5,0 -5,5 z"
       stroke="#ad282b"
       stroke-width="4.5"
       id="path1"
       style="stroke-width:3.1;stroke-dasharray:none" />
    <path
       d="M 60,18 V 90"
       stroke="#ad282b"
       stroke-width="4.5"
       id="path2"
       style="stroke-width:3.1;stroke-dasharray:none" />
    <path
       d="m 23,35 q 11,-2 24,1"
       stroke="#ad282b"
       stroke-width="4.5"
       id="path3"
       style="stroke-width:3.1;stroke-dasharray:none" />
    <path
       d="m 23,49 q 11,-2 24,1"
       stroke="#ad282b"
       stroke-width="4.5"
       id="path4"
       style="stroke-width:3.1;stroke-dasharray:none" />
    <path
       d="m 23,63 q 11,-2 24,1"
       stroke="#ad282b"
       stroke-width="4.5"
       id="path5"
       style="stroke-width:3.1;stroke-dasharray:none" />
    <path
       d="m 73,35 q 11,-2 24,0"
       stroke="#ad282b"
       stroke-width="4.5"
       id="path6"
       style="stroke-width:3.1;stroke-dasharray:none" />
    <path
       d="m 73,49 q 11,-2 24,0"
       stroke="#ad282b"
       stroke-width="4.5"
       id="path7"
       style="stroke-width:3.1;stroke-dasharray:none" />
    <path
       d="m 73,63 q 11,-2 24,0"
       stroke="#ad282b"
       stroke-width="4.5"
       id="path8"
       style="stroke-width:3.1;stroke-dasharray:none" />
  </g>
</svg>

<svg xmlns="http://www.w3.org/2000/svg" width="121" height="107" viewBox="0 0 121 107" fill="none">
  <g stroke-linecap="round" stroke-linejoin="round">
    <path d="M14 18V84H48Q55 84 60 90Q65 84 72 84H106V18Q106 13 101 13H76Q67 13 60 18Q53 13 44 13H19Q14 13 14 18Z" stroke="#AD282B" stroke-width="4.5"/>
    <path d="M60 18V90" stroke="#AD282B" stroke-width="4.5"/>
    <path d="M23 35Q34 33 47 36" stroke="#AD282B" stroke-width="4.5"/>
    <path d="M23 49Q34 47 47 50" stroke="#AD282B" stroke-width="4.5"/>
    <path d="M23 63Q34 61 47 64" stroke="#AD282B" stroke-width="4.5"/>
    <path d="M73 35Q84 33 97 35" stroke="#AD282B" stroke-width="4.5"/>
    <path d="M73 49Q84 47 97 49" stroke="#AD282B" stroke-width="4.5"/>
    <path d="M73 63Q84 61 97 63" stroke="#AD282B" stroke-width="4.5"/>

    <path d="M14 18V84H48Q55 84 60 90Q65 84 72 84H106V18Q106 13 101 13H76Q67 13 60 18Q53 13 44 13H19Q14 13 14 18Z" stroke="#AD282B" stroke-width="2.5"/>
    <path d="M60 18V90" stroke="#AD282B" stroke-width="2.5"/>
    <path d="M23 35Q34 33 47 36" stroke="#AD282B" stroke-width="2.5"/>
    <path d="M23 49Q34 47 47 50" stroke="#AD282B" stroke-width="2.5"/>
    <path d="M23 63Q34 61 47 64" stroke="#AD282B" stroke-width="2.5"/>
    <path d="M73 35Q84 33 97 35" stroke="#AD282B" stroke-width="2.5"/>
    <path d="M73 49Q84 47 97 49" stroke="#AD282B" stroke-width="2.5"/>
    <path d="M73 63Q84 61 97 63" stroke="#AD282B" stroke-width="2.5"/>
  </g>
</svg>
